LoveBridge_Remote/Earthquake.svg

<?xml version="1.0" encoding="UTF-8" standalone="no"?>
<svg
   width="100%"
   height="100%"
   viewBox="0 0 256 256"
   version="1.1"
   xml:space="preserve"
   style="fill-rule:evenodd;clip-rule:evenodd;stroke-linejoin:round;stroke-miterlimit:2;"
   id="svg127"
   sodipodi:docname="Earthquake.svg"
   inkscape:version="1.2.1 (9c6d41e410, 2022-07-14)"
   xmlns:inkscape="http://www.inkscape.org/namespaces/inkscape"
   xmlns:sodipodi="http://sodipodi.sourceforge.net/DTD/sodipodi-0.dtd"
   xmlns="http://www.w3.org/2000/svg"
   xmlns:svg="http://www.w3.org/2000/svg"><defs
   id="defs131"><inkscape:path-effect
     effect="bspline"
     id="path-effect2751"
     is_visible="true"
     lpeversion="1"
     weight="33.333333"
     steps="2"
     helper_size="0"
     apply_no_weight="true"
     apply_with_weight="true"
     only_selected="false" /></defs><sodipodi:namedview
   id="namedview129"
   pagecolor="#ffffff"
   bordercolor="#000000"
   borderopacity="0.25"
   inkscape:showpageshadow="2"
   inkscape:pageopacity="0.0"
   inkscape:pagecheckerboard="0"
   inkscape:deskcolor="#d1d1d1"
   showgrid="false"
   inkscape:zoom="8.0234375"
   inkscape:cx="91.295034"
   inkscape:cy="117.09445"
   inkscape:window-width="3840"
   inkscape:window-height="2097"
   inkscape:window-x="3832"
   inkscape:window-y="-8"
   inkscape:window-maximized="1"
   inkscape:current-layer="svg127" />
    <path
   style="fill-rule:evenodd;clip-rule:evenodd;stroke-linejoin:round;stroke-miterlimit:2;display:inline;fill:none;stroke:#000000;stroke-width:7.25;stroke-dasharray:none;stroke-opacity:1;paint-order:stroke fill markers"
   d="m 69.933784,134.64774 -0.04846,-10.95139 h 13.374503 v -8.38336 l 13.374502,-1e-4 v -9.20714 l 15.191491,6e-5 V 93.215785 l 5.2337,5.839425 5.42726,-5.839425 5.16089,8.068505 5.50007,-8.068505 5.185,5.839425 v 35.59253"
   id="path2759"
   sodipodi:nodetypes="cccccccccccccc"
   transform="matrix(2.572,0,0,2.572,-139.488,-185.909)"
   inkscape:label="Earthquake"
   inkscape:export-filename="path2759.svg"
   inkscape:export-xdpi="96"
   inkscape:export-ydpi="96" />
</svg>

<?xml version="1.0" encoding="UTF-8" standalone="no"?>
<!DOCTYPE svg PUBLIC "-//W3C//DTD SVG 1.1//EN" "http://www.w3.org/Graphics/SVG/1.1/DTD/svg11.dtd">
<svg width="100%" height="100%" viewBox="0 0 256 256" version="1.1" xmlns="http://www.w3.org/2000/svg" xmlns:xlink="http://www.w3.org/1999/xlink" xml:space="preserve" xmlns:serif="http://www.serif.com/" style="fill-rule:evenodd;clip-rule:evenodd;stroke-linejoin:round;stroke-miterlimit:2;">
    <g id="Earthquake" transform="matrix(2.572,0,0,2.572,-139.488,-185.909)">
        <path class="svgBtn fa-primary" d="M69.934,134.648L69.885,123.696L83.26,123.696L83.26,115.313L96.634,115.313L96.634,106.106L111.826,106.106L111.826,93.216L117.06,99.055L122.487,93.216L127.648,101.284L133.148,93.216L138.333,99.055L138.333,134.648" style="fill:none;stroke:black;stroke-width:7.25px;"/>
    </g>
</svg>
